X: 1
T: Bobby Graham's Coach
C: Catherine Fraser (Aug 2005)
R: reel
M: C|
L: 1/8
P: AABBA
K: G
DF "A1"\
|: "G"G2BG cGBG | DGBG "D7"cBAF | "G"G2BG cGBG | "D7"dcBA GFED |
|  "G"G2BG cGBG | DGBG "D7"cBAB | "G"dcBA GFED | "C"EDEF "D7"GFED :|
"B"\
|: "Em"E2BE ^cEdE | DEBE "D"d^cBA | "Em"DEBE ^cEdE | "D"FDFA dAFD |
|  "Em"E2BE ^cEdE | DEBE "D"d^cBA | "G"G2BG "D"F2AF | "Em"B2BA "D"BAGF :|
"A2"\
[| "G"G2BG cGBG | DGBG "D7"cBAF | "G"G2BG cGBG | "D7"dcBA GFED |
|  "G"G2BG cGBG | DGBG "D7"cBAB | "G"dcBA GFED | "C"ED"D7"EF "G"G2 |]
